X:1
T:Wonderful World
T:Wonderful World
T:The Balkan Princess
T:Paul Rubens
C:Paul Rubens
%%score ( 1 2 ) { ( 3 4 7 ) | ( 5 6 ) }
L:1/8
Q:1/4=110
M:3/4
K:C
V:1 treble nm="Sopran"
V:2 treble 
V:3 treble nm="Piano"
V:4 treble 
V:7 treble 
V:5 bass 
V:6 bass 
V:1
"^Tempo di Valse, quasi lente" z6 | z6 | z6 | z6 | z6 | z6 | z6 | z6 ||"^più vivo" G2 G2 G2 | %9
w: ||||||||Wick- ed old|
 c2 c2 c2 | F2 F3 F | B6 | E2 E3 E | A6 | D2 D3 D | G6 | E6 | ^F2 G2 A2 | B4 ^F2 | G6 | G6 | %21
w: world, youve been|slight- ed for|years \-|Cru- el- ly|used,|Sad- ly a-|bused.|Men|say you are|old and|gray,|Men|
 A2 B2 c2 | d4 A2 | c2 B2 A2 | G2 G2 G2 | c2 c2 c2 | F2 F3 F | B6 | E2 E3 E | A6 | D2 D3 D | G6 | %32
w: say you have|had your|day, But I|can- not be-|lieve you're all|trou- ble and|tears.|You seem to|be|Charm- ing to|me!|
 E6 | c6 | B2 ^G2 A2 | d6- | d4 e2 | E2 ^F2 G2 | A4 B2 | G6 | z6 | z6 ||"^Slowly" E6 | D6 | %44
w: I'm|in|love at first|sight \-|_ In|love with the|world to-|night!|||World,|world,|
 E2 G2 e2 | d4 c2 | F6 | E6 | F6- | F6 | F6 | E6 | F2 G2 f2 | e4 d2 | G6 | A6 | B2 A2 G2 | D4 ^D2 | %58
w: won- der- ful|world, You're|mine|at|last!|_|My|lost|free- dom re-|store me,|Spread|your|won- ders be-|fore me!|
 E6 | D6 | E2 G2 e2 | d4 c2 | F6 | E6 | F6- | F2 G2 A2 | B6 | A6 | G2 _G2 F2 |"^rall." E4 D2 | C6 | %71
w: Free|as|swal- lows that|fly With|wings|un-|furled,|_ Let me|wan-|der|fear- less- ly|Through the|wide,|
 (TG6{^FG)} | c6- | c2 z4 || z6 | z6 | z6 | z6 | z6 | z6 | z6 | z6 ||"^più vivo" G2 G2 G2 | %83
w: wide|world!|_|||||||||Wick- ed old|
 c2 c2 c2 | F2 F3 F | B6 | E2 E3 E | A6 | D2 D3 D | G6 | E6 | ^F2 G2 A2 | B4 ^F2 | G6 | G6 | %95
w: world, I have|al- ways been|told|You are a|snare \-|False as you're|fair!|We're|taught from our|ten- d'rest|age,|You're|
 A2 B2 c2 | d4 A2 | c2 B2 A2 | G2 G2 G2 | c2 c2 c2 | F2 F3 F | B6 | E2 E3 E | A6 | D2 D3 D | G6 | %106
w: on- ly a|gild- ed|cage. But sup-|pos- ing your|glit- ter is|not real- ly|gold,|What do I|care,|Now that I'm|there?|
 E6 | c6 | B2 ^G2 A2 | d6- | d4 e2 | E2 ^F2 G2 | A4 B2 | G6 | z6 | z6 ||"^Slowly" E6 | D6 | %118
w: Al-|though|fic- kle you|be,|_ You're|friend- ly, you're|fresh, you're|free!|||World,|world,|
 E2 G2 e2 | d4 c2 | F6 | E6 | F6- | F6 | F6 | E6 | F2 G2 f2 | e4 d2 | G6 | A6 | B2 A2 G2 | D4 ^D2 | %132
w: won- der- ful|world, You're|mine|at|last!|_|My|lost|free- dom re-|store me,|Spread|your|won- ders be-|fore me!|
 E6 | D6 | E2 G2 e2 | d4 c2 | F6 | E6 | F6- | F2 G2 A2 | B6 | A6 | G2 _G2 F2 | E4 D2 | C6 | %145
w: Free|as|swal- lows that|fly With|wings|un-|furl'd,|_ Let me|wan-|der|fear- less- ly|Through the|world.|
 D2 C2 D2 | E6 |"^accel." F2 E2 F2 | G6 |"^cresc." (AG FG) A2 | (cB AB) c2 | (dc Bc) d2 | %152
w: Just let me|be,|Hap- py and|free,|La, _ _ _ la,|la, _ _ _ la,|la, _ _ _ la,|
 ^d2 A2 d2 | e2 z2 z2 | ^c2 d2 e2 | f g a2 z2 | (!fermata!Tg4{!fermata!^f!fermata!g)} !fermata!g2 | %157
w: in the wide|world|I'd wan- der|hap- pi- ly|Through the|
 c6- | c6- | c6- | c2 z2 z2 |] %161
w: world.|_|||
V:2
 x6 | x6 | x6 | x6 | x6 | x6 | x6 | x6 || x6 | x6 | x6 | x6 | x6 | x6 | x6 | x6 | x6 | x6 | x6 | %19
 x6 | x6 | x6 | x6 | x6 | x6 | x6 | x6 | x6 | x6 | x6 | x6 | x6 | x6 | x6 | x6 | x6 | x6 | x6 | %38
 x6 | x6 | x6 | x6 || x6 | x6 | x6 | x6 | x6 | x6 | x6 | x6 | x6 | x6 | x6 | x6 | x6 | x6 | x6 | %57
 x6 | x6 | x6 | x6 | x6 | x6 | x6 | x6 | x6 | x6 | x6 | x6 | x6 | x6 | x6 | x6 | x6 || x6 | x6 | %76
 x6 | x6 | x6 | x6 | x6 | x6 || x6 | x6 | x6 | x6 | x6 | x6 | x6 | x6 | x6 | x6 | x6 | x6 | x6 | %95
 x6 | x6 | x6 | x6 | x6 | x6 | x6 | x6 | x6 | x6 | x6 | x6 | x6 | x6 | x6 | x6 | x6 | x6 | x6 | %114
 x6 | x6 || x6 | x6 | x6 | x6 | x6 | x6 | x6 | x6 | x6 | x6 | x6 | x6 | x6 | x6 | x6 | x6 | x6 | %133
 x6 | x6 | x6 | x6 | x6 | x6 | x6 | x6 | x6 | x6 | x6 | x6 | x6 | x6 | x6 | x6 | x6 | x6 | x6 | %152
 x6 | x6 | x6 | d d d2 x2 | x6 | x6 | x6 | x6 | x6 |] %161
V:3
!p! [E,E]6 | [D,D]6 |!<(! [E,E]2 [G,G]2 [A,A]2 | [Cc]2 [Dd]2 [Ee]2 | [Ff]6 | [Gg]6!<)! | %6
!f!!>(! [cec']6-!>)! | [cec']2 z2 z2 ||!p!"^più vivo" z2[I:staff +1] [E,G,CE]2 [E,G,CE]2 | %9
[I:staff -1] z2 [G,CEG]2 [CEGc]2 | z2 [F,CF]2 [F,CF]2 | z2[I:staff +1] [D,G,B,D]2 [^D,G,B,^D]2 | %12
[I:staff -1] z2[I:staff +1] [E,G,CE]2 [E,G,CE]2 |[I:staff -1] z2 [A,CE]2 [A,CEA]2 | %14
 z2 [F,CF]2 [F,B,F]2 | z2 [F,A,F]2 [F,B,F]2 | z2!<(! [G,CE]2 [G,CE]2 | [^F,^F]2 [G,G]2 [A,A]2!<)! | %18
 B4 ^F2 | G6 | [G,G]6 | [A,A]2 [B,B]2 [Cc]2 | d4 A2 |"^col canto" [Ac]2 [GB]2 [=FA]2 | %24
"^a tempo" z2 [E,G,CE]2 [E,G,CE]2 | z2 [G,CEG]2 [CEGc]2 | z2 [F,CF]2 [F,B,F]2 | %27
 z2 [D,G,B,D]2 [^D,G,B,^D]2 | z2 [E,G,CE]2 [E,A,CE]2 | z2 [A,CE]2 [A,CEA]2 | z2 [F,CF]2 [F,B,F]2 | %31
 z2 [F,A,F]2 [F,B,F]2 | z2 [G,CE]2 [G,CE]2 | c2 E2 _E2 | B2 ^G2 A2 | d6- | d4 e2 | E2 ^F2 G2 | %38
 [=CA]4 [CB]2 |!<(! [B,G]6!<)! |!f! (e'd' c'a fa) | (d2"^rall."!>(! g4)!>)! || %42
!p! z2 [E,C]2 [G,CE]2 | z2 [D,G,B,]2 [G,B,D]2 | z2 (G2 e2 | [Dd]4 [Cc]2) | [F,F]6 | [E,E]6 | %48
 [F,F-]6 |!<(! F2!<)!!>(! x4!>)! | z2 [G,B,F]4 | z2 [G,B,E]4 | ([F,B,F]2 G2 [Ff]2 | e4 [DGd]2) | %54
 G6 | A6 | z2 [B,=FA]4 | z2 [G,B,]4 | z2 [E,C]2 [G,CE]2 | z2 [D,G,B,]2 [G,B,D]2 | z2 (G2 e2 | %61
 [Dd]4 [Cc]2) | [F,F]6 | [E,E]6 | [F,F]6- | [F,F]2 [Gg]2 [Aa]2 | [Bb]6 | [Aa]6 | %68
 [Gg]2 [_G_g]2 [Ff]2 |"^rall." [Ee]4 [DGd]2 | [Cc]2 [CG]2 [CGc]2 | z2 [B,FG]2 [DFB]2 | [CEc]6- | %73
 [CEc]2 z2 z2 ||!p!"^Tempo I" [E,E]6 | [D,D]6 |!<(! [E,E]2 [G,G]2 [A,A]2 | [Cc]2 [Dd]2 [Ee]2 | %78
 [Ff]6 | [Gg]6!<)! |!f!!>(! [cec']6-!>)! | [cec']2 z2 z2 || %82
!p!"^più vivo" z2[I:staff +1] [E,G,CE]2 [E,G,CE]2 |[I:staff -1] z2 [G,CEG]2 [CEGc]2 | %84
 z2 [F,CF]2 [F,CF]2 | z2[I:staff +1] [D,G,B,D]2 [^D,G,B,^D]2 | %86
[I:staff -1] z2[I:staff +1] [E,G,CE]2 [E,G,CE]2 |[I:staff -1] z2 [A,CE]2 [A,CEA]2 | %88
 z2 [F,CF]2 [F,B,F]2 | z2 [F,A,F]2 [F,B,F]2 | z2!<(! [G,CE]2 [G,CE]2 | [^F,^F]2 [G,G]2 [A,A]2!<)! | %92
 B4 ^F2 | G6 | [G,G]6 | [A,A]2 [B,B]2 [Cc]2 | d4 A2 |"^col canto" [Ac]2 [GB]2 [=FA]2 | %98
"^a tempo" z2 [E,G,CE]2 [E,G,CE]2 | z2 [G,CEG]2 [CEGc]2 | z2 [F,CF]2 [F,B,F]2 | %101
 z2 [D,G,B,D]2 [^D,G,B,^D]2 | z2 [E,G,CE]2 [E,A,CE]2 | z2 [A,CE]2 [A,CEA]2 | z2 [F,CF]2 [F,B,F]2 | %105
 z2 [F,A,F]2 [F,B,F]2 | z2 [G,CE]2 [G,CE]2 | c2 E2 _E2 | B2 ^G2 A2 | d6- | d4 e2 | E2 ^F2 G2 | %112
 [=CA]4 [CB]2 |!<(! [B,G]6!<)! |!f! (e'd' c'a fa) |!>(! (d2"^rall." g4)!>)! || %116
!p! z2 [E,C]2 [G,CE]2 | z2 [D,G,B,]2 [G,B,D]2 | z2 (G2 e2 | [Dd]4 [Cc]2) | [F,F]6 | [E,E]6 | %122
 [F,F-]6 |!<(! F2!>(! x4!<)!!>)! | z2 [G,B,F]4 | z2 [G,B,E]4 | ([F,B,F]2 G2 [Ff]2 | e4 [DGd]2) | %128
 G6 | A6 | z2 [B,=FA]4 | z2 [G,B,]4 | z2 [E,C]2 [G,CE]2 | z2 [D,G,B,]2 [G,B,D]2 | z2 (G2 e2 | %135
 [Dd]4 [Cc]2) | [F,F]6 | [E,E]6 | [F,F]6- | [F,F]2 [Gg]2 [Aa]2 | [Bb]6 | [Aa]6 | %142
 [Gg]2 [_G_g]2 [Ff]2 | e4 d2 | c6 | [A,D] z [A,C] z [A,D] z | [^G,E]6 | %147
"^accel."!<(! [CF] z [CE] z [CF] z!<)! | [B,G]6 |"_cresc." AG FG A2 | cB AB c2 | dc Bc d2 | %152
!<(! [^D^d]2 A2 [Dd]2!<)! | [E^Ge]2 z2 z2 |!<(! [^CG^c]2 [DGd]2 [EGe]2 | [FAf][Gg]!<)! [Aa]2 z2 | %156
 !fermata!g6 |"_a tempo"!ff! c'g c'2 a2 | ge g2 e2 | cA c2 [A,CFA]2 | [CEc]2 C2 z2 |] %161
V:4
 z2 [G,C]4 | z2 [G,B,]4 | z2 E4 | z2 A4 | z2 [Ac]4 | z2 B4 | x6 | x6 || x6 | x6 | x6 | x6 | x6 | %13
 x6 | x6 | x6 | E,6 | z2 E4 | z2 [B,^D]4 | z2 [G,B,]4 | z2!<(! [A,C]4 | z2 [_EG]4!<)! | z2 [D^F]4 | %23
 x6 | x6 | x6 | x6 | x6 | x6 | x6 | x6 | x6 | E,6 | z2 C4 | z2 [D^F]4 | z2 ^F2 G2 | ^G6 | ^C6 | %38
 x6 | x6 | [!courtesy!=fa]6 | [Bd]4 ^d2 || x6 | x6 | x2 E4 | z2 [EG]4 | z2 [G,B,]4 | z2 [G,B,]4 | %48
 z2 [G,B,]2 [G,B,]2 | (G,2{/B,} A,2 G,2) | x6 | x6 | x6 | E2 G2 x2 | z2 [G,C]2 [CG]2 | %55
 z2 [A,C]2 [C^F]2 | (B,2 A,2 G,2 | D4 ^D2) | x6 | x6 | x2 E4 | z2 [EG]4 | z2 [G,B,]4 | z2 [G,B,]4 | %64
 z2 [G,B,]2 [G,B,]2 | [G,B,]2 x4 | z2 d2 g2 | z2 d2 f2 | x6 | z2 =G2 x2 | x6 | x6 | z2 E2 G2 | %73
 c2 x4 || z2 [G,C]4 | z2 [G,B,]4 | z2 E4 | z2 A4 | z2 [Ac]4 | z2 B4 | x6 | x6 || x6 | x6 | x6 | %85
 x6 | x6 | x6 | x6 | x6 | E,6 | z2 E4 | z2 [B,^D]4 | z2 [G,B,]4 | z2!<(! [A,C]4 | z2 [_EG]4!<)! | %96
 z2 [D^F]4 | x6 | x6 | x6 | x6 | x6 | x6 | x6 | x6 | x6 | E,6 | z2 C4 | z2 [D^F]4 | z2 ^F2 G2 | %110
 ^G6 | ^C6 | x6 | x6 | [fa]6 | [Bd]4 ^d2 || x6 | x6 | x2 E4 | z2 [EG]4 | z2 [G,B,]4 | z2 [G,B,]4 | %122
 z2 [G,B,]2 [G,B,]2 | (G,2{/B,} A,2 G,2) | x6 | x6 | x6 | E2 G2 x2 | z2 [G,C]2 [CG]2 | %129
 z2 [A,C]2 [C^F]2 | (B,2 A,2 G,2 | D4 ^D2) | x6 | x6 | x2 E4 | z2 [EG]4 | z2 [G,B,]4 | z2 [G,B,]4 | %138
 z2 [G,B,]2 [G,B,]2 | [G,B,]2 x4 | z2 d2 g2 | z2 d2 f2 | x6 | E2 =G2 [DF]2 | z2 [CE]2 [CE]2 | x6 | %146
 x6 | x6 | x6 | C2 C2 C2 | E2 E2 E2 | F2 F2 F2 | x6 | x6 | x6 | x6 | [GBe]2 !fermata![GBd]4 | %157
 [ce]4 [Ac]2 | [Gc]4 [EGB]2 | [CE]4 x2 | x6 |] %161
V:5
 [C,,G,,]6 | [G,,,G,,]6 | [C,,G,,]6 | A,,,2 [E,A,]4 | [D,,,D,,]2 [D,A,C]4 | [G,,,G,,]2 [G,B,F]4 | %6
 !arpeggio![C,G,E]4 [G,,G,]2 | [C,,C,]2 z2 z2 || [C,,G,,]6 | [G,,,G,,]6 | [D,,G,,]6 | [G,,,G,,]6 | %12
 [C,,G,,]6 | [G,,,G,,]6 | [C,,G,,]6 | [G,,,G,,]6 | [C,,G,,]6 | (A,,4 ^F,,2) | [B,,,B,,]2 [^F,A,]4 | %19
 z2 [B,,E,]4 | [_E,,_E,]6 | ([C,,C,]4 [_E,,_E,]2) | [D,,D,]2 [D,C]4 | C2 B,2 A,2 | [C,,G,,]6 | %25
 [G,,,G,,]6 | [D,,G,,]6 | [G,,,G,,]6 | [C,,G,,]6 | [G,,,G,,]6 | [D,,G,,]6 | [G,,,G,,]6 | %32
 [C,,G,,]6 | z2 E,2 _E,2 | z2 C4 | z2 [G,B,]4 | z2 [E,^G,]4 | =G,2 ^F,2 E,2 | E,2 ^E,2 ^F,2 | %39
 G,,2 D,2 G,2 |[K:treble] [Dc]6 | [G,F]6 ||[K:bass] [C,,G,,]6 | [G,,,G,,]6 | [C,,G,,]2 [G,C]4 | %45
 G,,6 | [D,,G,,]6 | [^C,,G,,]6 | [D,,G,,]6 | (G,,2{/B,,} A,,2 G,,2) | D,6 | ^C,6 | %52
 [D,,G,,D,]2 G,2 [A,C]2 | [G,B,]4 [F,G,B,]2 | ([E,,E,]6 | [_E,,_E,]6 | [D,,G,,D,]6) | z2 F,4 | %58
 [C,,G,,]6 | [G,,,G,,]6 | [C,,G,,]2 [G,C]4 | G,,6 | [D,,G,,]6 | [^C,,G,,]6 | [D,,G,,]6- | %65
 [D,,G,,]2 [B,F]2 [CF]2 | [DF]6 | [CDF]6 | [B,D]2 [_B,_D]2 [A,C]2 | [G,B,]4 [F,G,B,]2 | [E,G,]6 | %71
 [D,G,]4 G,,2 |!ped! (!arpeggio![C,,G,,E,]2 G,2 C2 | E2)!ped-up! z4 || [C,,G,,]6 | [G,,,G,,]6 | %76
 [C,,G,,]6 | A,,,2 [E,A,]4 | [D,,,D,,]2 [D,A,C]4 | [G,,,G,,]2 [G,B,F]4 | %80
!ped! !arpeggio![C,G,E]4 [G,,G,]2 | [C,,C,]2!ped-up! z2 z2 || [C,,G,,]6 | [G,,,G,,]6 | [D,,G,,]6 | %85
 [G,,,G,,]6 | [C,,G,,]6 | [G,,,G,,]6 | [C,,G,,]6 | [G,,,G,,]6 | [C,,G,,]6 | (A,,4 ^F,,2) | %92
 [B,,,B,,]2 [^F,A,]4 | z2 [B,,E,]4 | [_E,,_E,]6 | ([C,,C,]4 [_E,,_E,]2) | [D,,D,]2 [D,C]4 | %97
 C2 B,2 A,2 | [C,,G,,]6 | [G,,,G,,]6 | [D,,G,,]6 | [G,,,G,,]6 | [C,,G,,]6 | [G,,,G,,]6 | %104
 [D,,G,,]6 | [G,,,G,,]6 | [C,,G,,]6 | z2 E,2 _E,2 | z2 C4 | z2 [G,B,]4 | z2 [E,^G,]4 | %111
 =G,2 ^F,2 E,2 | E,2 ^E,2 ^F,2 | G,,2 D,2 G,2 |[K:treble] [Dc]6 | [G,F]6 ||[K:bass] [C,,G,,]6 | %117
 [G,,,G,,]6 | [C,,G,,]2 [G,C]4 | G,,6 | [D,,G,,]6 | [^C,,G,,]6 | [D,,G,,]6 | %123
 (G,,2{/B,,} A,,2 G,,2) | D,6 | ^C,6 | [D,,G,,D,]2 G,2 [A,C]2 | [G,B,]4 [F,G,B,]2 | ([E,,E,]6 | %129
 [_E,,_E,]6 | [D,,G,,D,]6) | z2 F,4 | [C,,G,,]6 | [G,,,G,,]6 | [C,,G,,]2 [G,C]4 | G,,6 | %136
 [D,,G,,]6 | [^C,,G,,]6 | [D,,G,,]6- | [D,,G,,]2 [B,F]2 [CF]2 | [DF]6 | [CDF]6 | %142
 [B,D]2 [_B,_D]2 [A,C]2 | [G,=B,]4 [^G,B,]2 | [A,,E,A,]6 | [F,,D,] z [F,,C,] z [F,,D,] z | %146
 (E,,2 B,,2 E,2) | [D,A,] z [D,A,] z [D,A,] z | (G,,2 D,2 G,2) | [F,A,]2 [F,A,]2 [F,A,]2 | %150
 [E,F,A,]2 [E,F,A,]2 [E,F,A,]2 | [D,F,A,]2 [D,F,A,]2 [D,F,A,]2 | [C,F,A,]2 [C,F,A,]2 [C,F,A,]2 | %153
 [B,,E,^G,]2 z2 z2 | A,2 B,2 ^C2 | [D,A,D][E,E] [F,F]2 z2 | [B,E]2 !fermata![B,F]4 | %157
 !arpeggio![C,G,E]4 [F,CF]2 | [E,CE]4 [G,,E,G,]2 | [A,,E,A,]4 [F,,C,F,]2 | %160
 !arpeggio![C,,G,,E,]2 [C,,C,]2 z2 |] %161
V:6
 x6 | x6 | x6 | x6 | x6 | x6 | x6 | x6 || x6 | x6 | x6 | x6 | x6 | x6 | x6 | x6 | x6 | x6 | x6 | %19
 E,,6 | x6 | x6 | x6 | !arpeggio![G,,D,]6 | x6 | x6 | x6 | x6 | x6 | x6 | x6 | x6 | x6 | A,,6 | %34
 D,6 | B,,6 | E,,6 | A,,6 | D,4 D,2 | G,,6 |[K:treble] x6 | x6 ||[K:bass] x6 | x6 | x6 | x6 | x6 | %47
 x6 | x6 | x6 | x6 | x6 | x6 | x6 | x6 | x6 | x6 | [G,,,G,,]6 | x6 | x6 | x6 | x6 | x6 | x6 | x6 | %65
 x6 | x6 | x6 | x6 | x6 | x6 | x6 | x6 | x6 || x6 | x6 | x6 | x6 | x6 | x6 | x6 | x6 || x6 | x6 | %84
 x6 | x6 | x6 | x6 | x6 | x6 | x6 | x6 | x6 | E,,6 | x6 | x6 | x6 | !arpeggio![G,,D,]6 | x6 | x6 | %100
 x6 | x6 | x6 | x6 | x6 | x6 | x6 | A,,6 | D,6 | B,,6 | E,,6 | A,,6 | D,4 D,2 | G,,6 | %114
[K:treble] x6 | x6 ||[K:bass] x6 | x6 | x6 | x6 | x6 | x6 | x6 | x6 | x6 | x6 | x6 | x6 | x6 | x6 | %130
 x6 | [G,,,G,,]6 | x6 | x6 | x6 | x6 | x6 | x6 | x6 | x6 | x6 | x6 | x6 | x6 | x6 | x6 | x6 | x6 | %148
 x6 | x6 | x6 | x6 | x6 | x6 | [A,,E,]6 | x6 |{/!fermata!G,,,} !fermata!G,6 | x6 | x6 | x6 | x6 |] %161
V:7
 x6 | x6 | x6 | x6 | x6 | x6 | x6 | x6 || x6 | x6 | x6 | x6 | x6 | x6 | x6 | x6 | x6 | x6 | x6 | %19
 x6 | x6 | x6 | x6 | x6 | x6 | x6 | x6 | x6 | x6 | x6 | x6 | x6 | x6 | x6 | x6 | x2 D4 | z2 [DE]4 | %37
 x6 | x6 | x6 | x6 | x6 || x6 | x6 | x6 | x6 | x6 | x6 | x6 | x6 | x6 | x6 | x6 | x6 | x6 | x6 | %56
 x6 | x6 | x6 | x6 | x6 | x6 | x6 | x6 | x6 | x6 | x6 | x6 | x6 | x6 | x6 | x6 | x6 | x6 || x6 | %75
 x6 | x6 | x6 | x6 | x6 | x6 | x6 || x6 | x6 | x6 | x6 | x6 | x6 | x6 | x6 | x6 | x6 | x6 | x6 | %94
 x6 | x6 | x6 | x6 | x6 | x6 | x6 | x6 | x6 | x6 | x6 | x6 | x6 | x6 | x6 | x2 D4 | z2 [DE]4 | x6 | %112
 x6 | x6 | x6 | x6 || x6 | x6 | x6 | x6 | x6 | x6 | x6 | x6 | x6 | x6 | x6 | x6 | x6 | x6 | x6 | %131
 x6 | x6 | x6 | x6 | x6 | x6 | x6 | x6 | x6 | x6 | x6 | x6 | x6 | x6 | x6 | x6 | x6 | x6 | x6 | %150
 x6 | x6 | x6 | x6 | x6 | x6 | x6 | x6 | x6 | x6 | x6 |] %161

